src/assets/icon/photo_camera.svg

<svg width="20" height="20" viewBox="0 0 20 20" fill="none" xmlns="http://www.w3.org/2000/svg">
<mask id="mask0_168_9414" style="mask-type:alpha" maskUnits="userSpaceOnUse" x="0" y="0" width="20" height="20">
<rect width="20" height="20" fill="#D9D9D9"/>
</mask>
<g mask="url(#mask0_168_9414)">
<path d="M10 14.2625C10.9563 14.2625 11.7669 13.93 12.4319 13.265C13.0969 12.6 13.4294 11.7894 13.4294 10.8332C13.4294 9.87692 13.0969 9.0663 12.4319 8.4013C11.7669 7.7363 10.9563 7.4038 10 7.4038C9.04379 7.4038 8.23317 7.7363 7.56817 8.4013C6.90317 9.0663 6.57067 9.87692 6.57067 10.8332C6.57067 11.7894 6.90317 12.6 7.56817 13.265C8.23317 13.93 9.04379 14.2625 10 14.2625ZM10 13.0128C9.38462 13.0128 8.86754 12.8033 8.44879 12.3844C8.0299 11.9657 7.82046 11.4486 7.82046 10.8332C7.82046 10.2178 8.0299 9.70067 8.44879 9.28192C8.86754 8.86303 9.38462 8.65359 10 8.65359C10.6155 8.65359 11.1325 8.86303 11.5513 9.28192C11.9702 9.70067 12.1796 10.2178 12.1796 10.8332C12.1796 11.4486 11.9702 11.9657 11.5513 12.3844C11.1325 12.8033 10.6155 13.0128 10 13.0128ZM3.58983 17.0832C3.16886 17.0832 2.81254 16.9373 2.52087 16.6457C2.22921 16.354 2.08337 15.9977 2.08337 15.5767V6.08963C2.08337 5.66866 2.22921 5.31234 2.52087 5.02067C2.81254 4.729 3.16886 4.58317 3.58983 4.58317H6.13462L7.22442 3.40213C7.36122 3.25143 7.52657 3.13282 7.72046 3.0463C7.91435 2.95977 8.11865 2.9165 8.33337 2.9165H11.6667C11.8814 2.9165 12.0857 2.95977 12.2796 3.0463C12.4735 3.13282 12.6389 3.25143 12.7757 3.40213L13.8655 4.58317H16.4102C16.8312 4.58317 17.1875 4.729 17.4792 5.02067C17.7709 5.31234 17.9167 5.66866 17.9167 6.08963V15.5767C17.9167 15.9977 17.7709 16.354 17.4792 16.6457C17.1875 16.9373 16.8312 17.0832 16.4102 17.0832H3.58983ZM3.58983 15.8332H16.4102C16.4851 15.8332 16.5466 15.8091 16.5946 15.7611C16.6427 15.713 16.6667 15.6516 16.6667 15.5767V6.08963C16.6667 6.01477 16.6427 5.95331 16.5946 5.90525C16.5466 5.8572 16.4851 5.83317 16.4102 5.83317H13.3077L11.7788 4.1665H8.22129L6.69233 5.83317H3.58983C3.51497 5.83317 3.45351 5.8572 3.40546 5.90525C3.3574 5.95331 3.33337 6.01477 3.33337 6.08963V15.5767C3.33337 15.6516 3.3574 15.713 3.40546 15.7611C3.45351 15.8091 3.51497 15.8332 3.58983 15.8332Z" fill="#636263"/>
</g>
</svg>

<svg xmlns="http://www.w3.org/2000/svg" width="20" height="20" fill="none" xmlns:v="https://vecta.io/nano"><mask id="A" maskUnits="userSpaceOnUse" x="0" y="0" width="20" height="20" mask-type="alpha"><path fill="#d9d9d9" d="M0 0h20v20H0z"/></mask><g mask="url(#A)"><path d="M10 14.263c.956 0 1.767-.332 2.432-.997s.997-1.476.997-2.432-.332-1.767-.997-2.432-1.476-.998-2.432-.998-1.767.332-2.432.998-.998 1.476-.998 2.432.333 1.767.998 2.432 1.476.997 2.432.997zm0-1.25c-.615 0-1.132-.21-1.551-.628s-.628-.936-.628-1.551.209-1.133.628-1.551.936-.628 1.551-.628 1.133.209 1.551.628.628.936.628 1.551-.209 1.133-.628 1.551-.936.628-1.551.628zm-6.41 4.07c-.421 0-.777-.146-1.069-.437s-.437-.648-.437-1.069V6.09c0-.421.146-.777.438-1.069s.648-.437 1.069-.437h2.545l1.09-1.181a1.47 1.47 0 0 1 .496-.356c.194-.087.398-.13.613-.13h3.333c.215 0 .419.043.613.13a1.47 1.47 0 0 1 .496.356l1.09 1.181h2.545c.421 0 .777.146 1.069.438s.438.648.438 1.069v9.487c0 .421-.146.777-.437 1.069s-.648.438-1.069.438H3.59zm0-1.25h12.82a.25.25 0 0 0 .256-.256V6.09a.25.25 0 0 0-.256-.256h-3.102l-1.529-1.667H8.221L6.692 5.833H3.59a.25.25 0 0 0-.256.256v9.487a.25.25 0 0 0 .256.256z" fill="#636263"/></g></svg>
